src/pos-icons/paper-cut-vertical.svg

<svg height="24" viewBox="0 0 24 24" width="24" xmlns="http://www.w3.org/2000/svg"><path d="m11.43 3.23.57.77.57-.77v.01c.55-.74 1.43-1.24 2.43-1.24a3 3 0 0 1 3 3c0 .35-.06.69-.17 1h2.17a2 2 0 0 1 2 2v12a2 2 0 0 1 -2 2h-16a2 2 0 0 1 -2-2v-12a2 2 0 0 1 2-2h2.17c-.11-.31-.17-.65-.17-1a3 3 0 0 1 3-3c1 0 1.88.5 2.43 1.24zm-7.43 4.77v12h7a1 1 0 0 1 1-1 1 1 0 0 1 1 1h7v-12h-5-.1l2.1 2.92-1.6 1.18-2.98-4.1h-.84l-2.98 4.1-1.6-1.18 2.1-2.92h-.1zm5-4a1 1 0 0 0 -1 1 1 1 0 0 0 1 1 1 1 0 0 0 1-1 1 1 0 0 0 -1-1m6 0a1 1 0 0 0 -1 1 1 1 0 0 0 1 1 1 1 0 0 0 1-1 1 1 0 0 0 -1-1m-3 12a1 1 0 0 1 1 1 1 1 0 0 1 -1 1 1 1 0 0 1 -1-1 1 1 0 0 1 1-1m0-3a1 1 0 0 1 1 1 1 1 0 0 1 -1 1 1 1 0 0 1 -1-1 1 1 0 0 1 1-1m0-3a1 1 0 0 1 1 1 1 1 0 0 1 -1 1 1 1 0 0 1 -1-1 1 1 0 0 1 1-1z"/></svg>

<?xml version="1.0" encoding="UTF-8"?><!DOCTYPE svg PUBLIC "-//W3C//DTD SVG 1.1//EN" "http://www.w3.org/Graphics/SVG/1.1/DTD/svg11.dtd"><svg xmlns="http://www.w3.org/2000/svg" xmlns:xlink="http://www.w3.org/1999/xlink" version="1.1" id="mdi-paper-cut-vertical" width="24" height="24" viewBox="0 0 24 24"><path d="M11.43,3.23L12,4L12.57,3.23V3.24C13.12,2.5 14,2 15,2A3,3 0 0,1 18,5C18,5.35 17.94,5.69 17.83,6H20A2,2 0 0,1 22,8V20A2,2 0 0,1 20,22H4A2,2 0 0,1 2,20V8A2,2 0 0,1 4,6H6.17C6.06,5.69 6,5.35 6,5A3,3 0 0,1 9,2C10,2 10.88,2.5 11.43,3.24V3.23M4,8V20H11A1,1 0 0,1 12,19A1,1 0 0,1 13,20H20V8H15L14.9,8L17,10.92L15.4,12.1L12.42,8H11.58L8.6,12.1L7,10.92L9.1,8H9L4,8M9,4A1,1 0 0,0 8,5A1,1 0 0,0 9,6A1,1 0 0,0 10,5A1,1 0 0,0 9,4M15,4A1,1 0 0,0 14,5A1,1 0 0,0 15,6A1,1 0 0,0 16,5A1,1 0 0,0 15,4M12,16A1,1 0 0,1 13,17A1,1 0 0,1 12,18A1,1 0 0,1 11,17A1,1 0 0,1 12,16M12,13A1,1 0 0,1 13,14A1,1 0 0,1 12,15A1,1 0 0,1 11,14A1,1 0 0,1 12,13M12,10A1,1 0 0,1 13,11A1,1 0 0,1 12,12A1,1 0 0,1 11,11A1,1 0 0,1 12,10Z" /></svg>
